public/assets/icons/trash.svg

<svg fill="none" height="32" viewBox="0 0 32 32" width="32" xmlns="http://www.w3.org/2000/svg"><path d="m19.3334 12h3.3333v1.3334h-1.3333v8.6666c0 .1769-.0703.3464-.1953.4714-.125.1251-.2946.1953-.4714.1953h-9.3333c-.1768 0-.3464-.0702-.4714-.1953-.1251-.125-.1953-.2945-.1953-.4714v-8.6666h-1.33333v-1.3334h3.33333v-2c0-.17677.0702-.34634.1953-.47136.125-.12503.2946-.19527.4714-.19527h5.3333c.1768 0 .3464.07024.4714.19527.125.12502.1953.29459.1953.47136zm-5.3334 3.3334v4h1.3334v-4zm2.6667 0v4h1.3333v-4zm-2.6667-4.6667v1.3333h4v-1.3333z" fill="#e53e3e"/></svg>

<svg width="32" height="32" viewBox="0 0 32 32" fill="none" xmlns="http://www.w3.org/2000/svg">
<path d="M19.3334 12H22.6667V13.3334H21.3334V22C21.3334 22.1769 21.2631 22.3464 21.1381 22.4714C21.0131 22.5965 20.8435 22.6667 20.6667 22.6667H11.3334C11.1566 22.6667 10.987 22.5965 10.862 22.4714C10.7369 22.3464 10.6667 22.1769 10.6667 22V13.3334H9.33337V12H12.6667V10C12.6667 9.82323 12.7369 9.65366 12.862 9.52864C12.987 9.40361 13.1566 9.33337 13.3334 9.33337H18.6667C18.8435 9.33337 19.0131 9.40361 19.1381 9.52864C19.2631 9.65366 19.3334 9.82323 19.3334 10V12ZM14 15.3334V19.3334H15.3334V15.3334H14ZM16.6667 15.3334V19.3334H18V15.3334H16.6667ZM14 10.6667V12H18V10.6667H14Z" fill="#E53E3E"/>
</svg>
